svg/fluentui-system-icons/ic_fluent_chart_person_28_regular.svg

<svg width="28" height="28" viewBox="0 0 28 28" fill="none" xmlns="http://www.w3.org/2000/svg">
<path d="M14.25 2C14.6642 2 15 2.33579 15 2.75V3H22.75C24.5449 3 26 4.45507 26 6.25V16.75C26 16.8881 25.8881 17 25.75 17C25.6119 17 25.5008 16.8879 25.4923 16.7501C25.4358 15.8338 25.0709 15.001 24.5 14.3542V6.25C24.5 5.2835 23.7165 4.5 22.75 4.5H5.25C4.2835 4.5 3.5 5.2835 3.5 6.25V18.75C3.5 19.7165 4.2835 20.5 5.25 20.5H16.3726C15.831 20.8565 15.41 21.3813 15.1839 22H10.584L7.30878 25.7402C7.0359 26.0518 6.56207 26.0832 6.25044 25.8104C5.93882 25.5375 5.90741 25.0636 6.18029 24.752L8.59015 22H5.25C3.45507 22 2 20.5449 2 18.75V6.25C2 4.45507 3.45507 3 5.25 3H13.5V2.75C13.5 2.33579 13.8358 2 14.25 2ZM6.74621 7.5C6.33193 7.5 5.99609 7.83579 5.99609 8.25C5.99609 8.66421 6.33193 9 6.74621 9H12.2471C12.6613 9 12.9972 8.66421 12.9972 8.25C12.9972 7.83579 12.6613 7.5 12.2471 7.5H6.74621ZM6.74621 11.5C6.33193 11.5 5.99609 11.8358 5.99609 12.25C5.99609 12.6642 6.33193 13 6.74621 13H17.2479C17.6621 13 17.998 12.6642 17.998 12.25C17.998 11.8358 17.6621 11.5 17.2479 11.5H6.74621ZM6.74621 15.5C6.33193 15.5 5.99609 15.8358 5.99609 16.25C5.99609 16.6642 6.33193 17 6.74621 17H15.2475C15.6618 17 15.9977 16.6642 15.9977 16.25C15.9977 15.8358 15.6618 15.5 15.2475 15.5H6.74621ZM24.5 17C24.5 18.6569 23.1569 20 21.5 20C19.8431 20 18.5 18.6569 18.5 17C18.5 15.3431 19.8431 14 21.5 14C23.1569 14 24.5 15.3431 24.5 17ZM27 23.25C27 25.1178 25.4286 27 21.5 27C17.5714 27 16 25.1249 16 23.25V23.0448C16 21.9151 16.9158 21 18.0455 21H24.9545C26.0842 21 27 21.9151 27 23.0448V23.25Z" fill="#212121"/>
</svg>

<svg xmlns="http://www.w3.org/2000/svg" width="28" height="28"><path d="M14.25 2a.75.75 0 0 1 .75.75V3h7.75A3.25 3.25 0 0 1 26 6.25v10.5a.25.25 0 0 1-.25.25.263.263 0 0 1-.258-.25 3.983 3.983 0 0 0-.992-2.396V6.25a1.75 1.75 0 0 0-1.75-1.75H5.25A1.75 1.75 0 0 0 3.5 6.25v12.5c0 .966.784 1.75 1.75 1.75h11.123a3.054 3.054 0 0 0-1.19 1.5h-4.599l-3.275 3.74a.75.75 0 0 1-1.129-.988L8.59 22H5.25A3.25 3.25 0 0 1 2 18.75V6.25A3.25 3.25 0 0 1 5.25 3h8.25v-.25a.75.75 0 0 1 .75-.75ZM6.746 7.5a.75.75 0 1 0 0 1.5h5.501a.75.75 0 1 0 0-1.5h-5.5Zm0 4a.75.75 0 1 0 0 1.5h10.502a.75.75 0 0 0 0-1.5H6.746Zm0 4a.75.75 0 1 0 0 1.5h8.502a.75.75 0 1 0 0-1.5H6.745ZM24.5 17a3 3 0 1 1-6 0 3 3 0 0 1 6 0Zm2.5 6.25c0 1.868-1.571 3.75-5.5 3.75-3.929 0-5.5-1.875-5.5-3.75v-.205c0-1.13.916-2.045 2.046-2.045h6.909c1.13 0 2.045.915 2.045 2.045v.205Z"/></svg>
